X: 1
T: The Trip To Cullenstown
R: reel
M: 4/4
L: 1/8
K: Gmaj
d2 de dBGA | B2 BG AGEG | d2 de dBGA | BAAG A4 |
BABd e2 dB | dedB AGEG | B2 BG AGEG |1 DGGF GABc :|2 DGGF G3 A ||
Bd d2 ce e2 | d2 de dBGA | Bd d2 ed d2 | gedB A4 |
BABd e2 dB | dedB AGEG | B2 BG AGEG | DGGF G4 :|


Tune 2996	Setting 23731

